src/images/navigation-icon.svg

<svg width="28" height="23" fill="none" xmlns="http://www.w3.org/2000/svg"><path fill-rule="evenodd" clip-rule="evenodd" d="M28 3H0V0h28v3ZM28 13H0v-3h28v3ZM28 23H0v-3h28v3Z" fill="#000"/></svg>

<svg width="28" height="23" viewBox="0 0 28 23" fill="none" xmlns="http://www.w3.org/2000/svg">
<path fill-rule="evenodd" clip-rule="evenodd" d="M28 3L0 3L0 0L28 0V3Z" fill="black"/>
<path fill-rule="evenodd" clip-rule="evenodd" d="M28 13L0 13L0 10L28 10V13Z" fill="black"/>
<path fill-rule="evenodd" clip-rule="evenodd" d="M28 23L0 23L0 20L28 20V23Z" fill="black"/>
</svg>
